!!!OTL: Die sieben Freuden der Maria
!!!ARE: Europa, Mitteleuropa, Deutschland
!!!SCT: A0601
!!!YEM: Copyright 1995, estate of Helmut Schaffrath.
**kern
*ICvox
*Ivox
*M4/2
*k[b-e-]
*g:
{2g
=1
1g
1dd
=2
1a
1cc
=3
1b-
2a
2a
=4
1g
2r}
{2g
=5
1g
2dd
2dd
=6
1a
1cc
=7
1b-
1a
=8
1g
2r}
{2g
=9
1fn
1b-
=10
1a
1a
=11
2fn
2d
1e
=12
1d
2r}
{2d
=13
1fn
1g
=14
1a
1dd
=15
2dd
2cc
2b-
2a
=16
1g}
{2d
2e
=17
1fn
1b-
=18
2a
2b-
2cc
2dd
=19
1b-
1a
=20
1.g}
==
!!!AGN: Romanze, Ballade, Lied, religioeses Lied
!! Corners Gsgb 1625 No. 242.
!!!ONB: ESAC (Essen Associative Code) Database: ALTDEU
!!!AMT: simple quadruple
!!!AIN: vox
!!!EED: Helmut Schaffrath
!!!EEV: 1.0
*-
